_includes/icons/ios-back-arrow.svg

<svg fill="#666" height="50" viewBox="0 0 50 50" width="50" xmlns="http://www.w3.org/2000/svg"><path d="m19.8125 13.09375c-.21875.039063-.414062.148438-.5625.3125l-10.90625 10.875-.6875.71875.6875.71875 10.90625 10.875c.242188.296875.628906.433594 1.003906.347656.371094-.085937.664063-.378906.75-.75.085938-.375-.050781-.761718-.347656-1.003906l-9.1875-9.1875h29.53125c.359375.003906.695313-.183594.878906-.496094.179688-.3125.179688-.695312 0-1.007812-.183593-.3125-.519531-.5-.878906-.496094h-29.53125l9.1875-9.1875c.324219-.300781.410156-.777344.214844-1.171875-.191406-.398437-.625-.617187-1.058594-.546875z"/></svg>

<svg xmlns="http://www.w3.org/2000/svg" viewBox="0 0 50 50" width="50" height="50" fill="#666"><path d="M 19.8125 13.09375 C 19.59375 13.132813 19.398438 13.242188 19.25 13.40625 L 8.34375 24.28125 L 7.65625 25 L 8.34375 25.71875 L 19.25 36.59375 C 19.492188 36.890625 19.878906 37.027344 20.253906 36.941406 C 20.625 36.855469 20.917969 36.5625 21.003906 36.191406 C 21.089844 35.816406 20.953125 35.429688 20.65625 35.1875 L 11.46875 26 L 41 26 C 41.359375 26.003906 41.695313 25.816406 41.878906 25.503906 C 42.058594 25.191406 42.058594 24.808594 41.878906 24.496094 C 41.695313 24.183594 41.359375 23.996094 41 24 L 11.46875 24 L 20.65625 14.8125 C 20.980469 14.511719 21.066406 14.035156 20.871094 13.640625 C 20.679688 13.242188 20.246094 13.023438 19.8125 13.09375 Z"/></svg>
